X: 20653
T: John Stephen Of Chance Inn
R: strathspey
M: 4/4
K: Gmajor
D2|:"G"G2G>AB>c d<B|g>fe>d B>c d<B|"C"e>dc>e "Bm"d>cB>c|"Am7" A2a>g "D7"(3fed (3cBA|
"G"G2G>AB>c d<B|g>fe>d B>c d<B|"C"e>dc>e "Bm"d>cB<>g|"Am7"(3fed "D7"(3cBA "G"G4:|
|:"Em"b>ag>b "Bm"a>f d2|"C"g>fe>g "Bm"f<b B2|"C"e>dc>e "Bm"d>cB>c|"Am7" A2a>g "D7"(3fed (3cBA|
"Em""Em"b>ag>b "Bm"a>f d2|"C"g>fe>g "Bm"f<b B2|"C"e>dc>e "Bm"d>cB>g|"Am7"(3fed "D7"(3cBA "G"G4:|

